X:71
T:Stack of Barley, The
C:Joe Buchanan's Scottish Tome - Page 246.2
I:246 2
Z:Carl Allison
R:Hornpipe
L:1/8
M:4/4
K:G
"Em"g>f | e>fe>d B>cd>B | "G"A>BA>G "D"A>cB>A | "G"G>FG>A B>A ((3Bcd) | "Am"e2 A2 A2 B>d |
"Em"e>fe>d B>cd>B | "C"A>GE>G "D"A>cB>A | "G"G>FG>A "D"B>dA>c | "G"B2 G2 G2 :|
d>c | B>GB>d g2 f>g | "C"a>gf>g e>de>f | "G"g>fe>d B>A ((3Bcd) | "Am"e2 A2 A2 f>g |
"D"a>gf>a "C"g2 f>e | "G"d>BA>G "D"A>cB>A | "G"G>FG>B "D"((3Bcd) A>c | "G"B2 G2 G2 :|

